docs/img/about/face.svg

<svg width="21" height="40" viewBox="0 0 21 40" fill="none" xmlns="http://www.w3.org/2000/svg">
<path d="M0.655989 21.3042H5.08984V39.3518C5.08984 39.711 5.38227 40 5.74583 40H13.2699C13.6335 40 13.9259 39.711 13.9259 39.3518V21.3901H19.0237C19.3556 21.3901 19.6323 21.148 19.6718 20.82L20.4463 14.1741C20.47 13.9945 20.4068 13.8071 20.2882 13.6743C20.1618 13.5338 19.9879 13.4557 19.7982 13.4557H13.9259V9.29324C13.9259 8.03592 14.6135 7.40336 15.9571 7.40336C16.1468 7.40336 19.7982 7.40336 19.7982 7.40336C20.1618 7.40336 20.4542 7.11441 20.4542 6.75517V0.655994C20.4542 0.296759 20.1618 0.00780945 19.7982 0.00780945H14.5029C14.4634 0.00780945 14.3843 -1.1637e-10 14.2579 -1.1637e-10C13.3411 -1.1637e-10 10.1481 0.179617 7.62686 2.46779C4.82903 5.02148 5.2163 8.05935 5.31114 8.58258V13.4557H0.655989C0.292429 13.4557 0 13.7446 0 14.1039V20.6638C0 21.0152 0.292429 21.3042 0.655989 21.3042Z" fill="#385C8E"/>
</svg>

<svg width="21" height="40" fill="none" xmlns="http://www.w3.org/2000/svg"><path d="M.656 21.304H5.09v18.048a.65.65 0 0 0 .656.648h7.524a.65.65 0 0 0 .656-.648V21.39h5.098a.648.648 0 0 0 .648-.57l.774-6.646a.64.64 0 0 0-.158-.5.652.652 0 0 0-.49-.218h-5.872V9.293c0-1.257.688-1.89 2.031-1.89h3.841a.65.65 0 0 0 .656-.648V.656a.65.65 0 0 0-.656-.648h-5.295c-.04 0-.119-.008-.245-.008-.917 0-4.11.18-6.631 2.468C4.829 5.02 5.217 8.059 5.31 8.583v4.873H.656a.65.65 0 0 0-.656.648v6.56c0 .351.292.64.656.64z" fill="#385C8E"/></svg>
